X: 20606
T: John Of Paris
R: jig
M: 6/8
K: Gmajor
dc|B2 B BAB|d2 B BAB|c2 e g2 e|d2 B BAB|
c2 A AGA|B2 G GFG|A2 A A2 G|F2 G Adc|
B2 B BAB|d2 B BAB|c2 e g2 e|d2 B BAB|
c2 A AGA|B2 G G2 F|E2 e d2 c|B2 G G3|
d2 d def|g2 a b3|b2 a g2 e|d2 d dBG|
e2 e ecA|d2 d dBG|c2 A B2 G|A2 e d2 c|
B2 B BAB|d2 B BAB|c2 e g2 e|d2 B BAB|
c2 A AGA|B2 G G2 F|E2 e d2 c|B2 G G||

